svgs/sharp-solid/square-p.svg

<svg xmlns="http://www.w3.org/2000/svg" viewBox="0 0 448 512"><!--! Font Awesome Pro 6.6.0 by @fontawesome - https://fontawesome.com License - https://fontawesome.com/license (Commercial License) Copyright 2024 Fonticons, Inc. --><path d="M448 32L0 32 0 480l448 0 0-448zM152 128l92 0c50.8 0 92 41.2 92 92l0 24-3.2 0c-10.6 39.2-46.3 68-88.8 68l-68 0 0 48 0 24-48 0 0-24 0-72 0-136 0-24 24 0zm92 136c24.3 0 44-19.7 44-44s-19.7-44-44-44l-68 0 0 88 68 0z"/></svg>

<svg xmlns="http://www.w3.org/2000/svg" viewBox="0 0 448 512"><!--! Font Awesome Pro 6.4.0 by @fontawesome - https://fontawesome.com License - https://fontawesome.com/license (Commercial License) Copyright 2023 Fonticons, Inc. --><path d="M448 32H0V480H448V32zM152 128h92c50.8 0 92 41.2 92 92s-41.2 92-92 92H176v48 24H128V360 288 152 128h24zm92 136c24.3 0 44-19.7 44-44s-19.7-44-44-44H176v88h68z"/></svg>
